X:2400
T:Gubbstrutten
O:england
C:Masurka av Mona Paxby-Modig, Älta
M:3/4
L:1/8
Q:1/4=170
K:G
"G"G2 D4|"G"G>F GA BG|"D"A2 D4|"D7"A>^G AB cA|\
"G"B2 G4|"G"B>A Bc dB|"D7"c2 AF DF|[1"G"G2 FE D2:|[2"G"G2 G4|:\
"G"((3ded) Bd gB|"G"e2 d^c d2|"D7"c2 cA ((3FAF)|"G"G2 FE D2|\
"G"((3ded) Bd gB|"G"e2 d^c d2|"D7"c2 cA ((3FAF)|"G"G2 G4::\
"G"G2 D4|"G"G>F GA BG|"D"A2 D4|"D7"A>^G AB cA|\
"G"B2 G4|"G"B>A Bc dB|"D7"c2 AF DF|[1"G"G2 FE D2:|[2"G"G2 G4|:\
"G"((3ded) Bd g2-|"G"g2 fe d2|"D7"c2 cA ((3FAF)|"G"G2 FE D2|\
"G"((3ded) Bd g2-|"G"g2 fe d2|"D7"c2 cA ((3FAF)|"G"G2 G4:|


